app/style/graphics/spriteSheets/characters/pacman/arrow_down.svg

<?xml version="1.0" encoding="utf-8"?>
<!-- Generator: Adobe Illustrator 27.8.1, SVG Export Plug-In . SVG Version: 6.00 Build 0)  -->
<svg version="1.1" id="Calque_1" xmlns="http://www.w3.org/2000/svg" xmlns:xlink="http://www.w3.org/1999/xlink" x="0px" y="0px"
	 viewBox="0 0 32 32" style="enable-background:new 0 0 32 32;" xml:space="preserve">
<style type="text/css">
	.st0{fill:#FF0049;}
</style>
<path class="st0" d="M13,25v1h1v1h1v1h1v-1h1v-1h1v-1h-1h-1h-1h-1H13z"/>
</svg>

<svg width="32" height="32" viewBox="0 0 32 32" fill="none" xmlns="http://www.w3.org/2000/svg">
<path d="M13 25V26H14V27H15V28H16V27H17V26H18V25H17H16H15H14H13Z" fill="#FFF295"/>
</svg>
